svgs/light/id-card-clip.svg

<svg xmlns="http://www.w3.org/2000/svg" viewBox="0 0 576 512"><!-- Font Awesome Pro 6.0.0-alpha2 by @fontawesome - https://fontawesome.com License - https://fontawesome.com/license (Commercial License) --><path d="M256 128H320C337.674 128 352 113.674 352 96V32C352 14.326 337.674 0 320 0H256C238.328 0 224 14.326 224 32V96C224 113.674 238.328 128 256 128ZM256 32H320V96H256V32ZM288 320C323.346 320 352 291.346 352 256S323.346 192 288 192S224 220.654 224 256S252.654 320 288 320ZM288 224C305.645 224 320 238.355 320 256S305.645 288 288 288S256 273.645 256 256S270.355 224 288 224ZM512 64H400C391.163 64 384 71.163 384 80V80C384 88.837 391.163 96 400 96H512C529.673 96 544 110.327 544 128V448C544 465.673 529.673 480 512 480H64C46.327 480 32 465.673 32 448V128C32 110.327 46.327 96 64 96H176C184.837 96 192 88.837 192 80V80C192 71.163 184.837 64 176 64H64C28.654 64 0 92.654 0 128V448C0 483.346 28.654 512 64 512H512C547.346 512 576 483.346 576 448V128C576 92.654 547.346 64 512 64ZM192 448C200.836 448 208 440.836 208 432C208 405.49 229.49 384 256 384H320C346.51 384 368 405.49 368 432C368 440.836 375.164 448 384 448S400 440.836 400 432C400 387.816 364.184 352 320 352H256C211.816 352 176 387.816 176 432C176 440.836 183.164 448 192 448Z"/></svg>

<svg xmlns="http://www.w3.org/2000/svg" viewBox="0 0 576 512"><!--! Font Awesome Pro 6.3.0 by @fontawesome - https://fontawesome.com License - https://fontawesome.com/license (Commercial License) Copyright 2023 Fonticons, Inc. --><path d="M256 128h64c17.67 0 32-14.33 32-32V32c0-17.67-14.33-32-32-32H256C238.3 0 224 14.33 224 32v64C224 113.7 238.3 128 256 128zM256 32h64v64H256V32zM288 320c35.35 0 64-28.65 64-64s-28.65-64-64-64S224 220.7 224 256S252.7 320 288 320zM288 224c17.64 0 32 14.36 32 32s-14.36 32-32 32S256 273.6 256 256S270.4 224 288 224zM512 64h-112C391.2 64 384 71.16 384 79.1S391.2 96 399.1 96H512c17.67 0 32 14.33 32 32v320c0 17.67-14.33 32-32 32H64c-17.67 0-32-14.33-32-32V128c0-17.67 14.33-32 32-32h112C184.8 96 192 88.84 192 80S184.8 64 176 64H64C28.65 64 0 92.65 0 128v320c0 35.35 28.65 64 64 64h448c35.35 0 64-28.65 64-64V128C576 92.65 547.3 64 512 64zM192 448c8.836 0 16-7.164 16-16C208 405.5 229.5 384 256 384h64c26.51 0 48 21.49 48 48c0 8.836 7.164 16 16 16s16-7.164 16-16c0-44.18-35.82-80-80-80H256c-44.18 0-80 35.82-80 80C176 440.8 183.2 448 192 448z"/></svg>
